X: 336
T: Wests Hornpipe
%R: reel, hornpipe
Z: 2014 John Chambers <jc:trillian.mit.edu>
B: Preston "Twenty four Country Dances for the Year 1798" p.148 #2
F: http://www.vwml.org/browse/browse-collections-dance-tune-books/browse-prestons1798# 2014-8-10
N: The 2nd strain has initial repeat but no final repeat; not fixed.
M: C|
L: 1/8
K: D
|:\
d2FG AFAF | d2FG A3d | BAGF E2ef | gfge dcBA |
d2FG AFAF | d2FG A3d | BAGF E2ef | gedc d4 :|
|:\
f2df dfdf | e2ce cece | d2Bd BdBd | edcB A4 |
dBTB2 cATA2 | dBTB2 cATA2 | dcdA FAFD | A2A2 A2(AB/"_D.C."c/) |]
% - - - - - - - - - - - - - - - - - - - - - - - - -
%%begintext align
%% 1st Lady foot to the 2d Gent: turn the 3d Gent: .|
%% 1st Gent: foot to the 2d Lady and turn the 3d
%% Lady :| Lead down 2 Cu: up again and Cast off
%% :|: Turn Corners :||
%%endtext
% - - - - - - - - - - - - - - - - - - - - - - - - -

%%sep 1 1 500
%%sep 1 1 500
